X: 1
T: Humours Of Tulla, The
M: 4/4
L: 1/8
R: reel
K: Gmaj
|: G2DG EGDE | G2BG AGEF | G2DG EGDG | (3EFG AB c2BA :|
|: dBAB GB~B2 | dB~B2 c2Bc | dBAB GBAB | (3EFG AB c2Bc :|
